third_party/noto/noto_2/emoji_u1f9ec.svg

<svg enable-background="new 0 0 128 128" version="1.1" viewBox="0 0 128 128" xmlns="http://www.w3.org/2000/svg"><path d="m15.87 60.07c7.11-7.11 15.53-8.55 23.94-8.59-4.93 1.69-8.59 5.23-12.06 10.21-9.14 13.12-4.12 33.31-0.87 45.08 1.54 5.58 3.13 11.4 4.04 17.23h-16.34c-0.74-3.87-1.85-8.15-3.18-12.96-4.58-16.64-10.06-36.44 4.47-50.97z" fill="#00897B"/><path d="m116.69 16.96c4.58 16.64 9.78 35.49-4.75 50.02-1.85 1.85-4.22 3.71-6.5 5.07-3.06 1.82-5.71 2.66-5.71 2.66s5-9.77 5.72-15.06c1.77-12.89-0.84-26.04-4.25-38.43-1.52-5.57-3.12-11.39-4.03-17.22h16.34c0.75 3.86 1.86 8.15 3.18 12.96z" fill="#00897B"/><path d="m72.37 27.41c-7.39 7.39-5.17 17.93-0.63 34.41 3.69 13.4 10.69 32.75-4.73 40.95-4.86 2.58-13.07 1.38-18.55 1.87 1.48-0.13 6.07-3.04 7.18-4.15 7.39-7.39 5.17-17.93 0.63-34.41-4.58-16.64-9.78-35.49 4.75-50.02s33.39-9.33 50.02-4.75c4.81 1.33 9.1 2.43 12.96 3.18v16.34c-5.83-0.91-11.65-2.51-17.23-4.04-16.48-4.54-27.01-6.77-34.4 0.62z" fill="#AB47BC"/><path d="m34.3 113.48c1.3 1.3 1.3 3.57 0 4.87-0.65 0.65-1.52 1.01-2.43 1.01-0.92 0-1.78-0.36-2.43-1.01l-8.6-11.18 4.28-4.28 9.18 10.59z" fill="#F9A825"/><path d="m13.05 92.47c1.31-0.98 3.25 0.37 3.9 1.02l8.17 9.41-4.28 4.28-8.16-10.6c-0.66-0.66-1.56-2.67 0.37-4.11z" fill="#40C4FF"/><path d="m50.87 110.89c1.34 1.34 1.34 3.53 0 4.87-0.65 0.65-1.51 1.01-2.43 1.01s-1.78-0.36-2.43-1.01l-16.81-16.96 4.19-4.19 17.48 16.28z" fill="#40C4FF"/><path d="m12.25 77.96c1.43-1.25 3.58 0.19 4.92 1.53l16.22 15.12-4.19 4.19-16.11-16.25c-1.23-1.28-2.5-3.15-0.84-4.59z" fill="#9ED839"/><path d="m60.45 101.31c1.3 1.3 1.3 3.57 0 4.87-1.34 1.34-3.53 1.34-4.87 0l-16.88-16.88 4.87-4.87 16.88 16.88z" fill="#9ED839"/><path d="m14.82 64c0-0.92 0.36-1.78 1.01-2.44 1.34-1.34 3.53-1.34 4.87 0l22.87 22.87-4.87 4.87-22.87-22.87c-0.65-0.65-1.01-1.51-1.01-2.43z" fill="#40C4FF"/><path d="m67.71 88.18c1.3 1.3 1.99 3.44 0.69 4.74 0 0-1.98 1.47-3.32 0.13l-15.87-14.26 4.28-4.28 14.22 13.67z" fill="#2E5FE6"/><path d="m29.98 60c0-0.92 0.36-1.78 1.01-2.43s1.52-1.01 2.43-1.01c0.92 0 1.79 0.36 2.43 1.01l17.63 16.94-4.28 4.28-18.21-16.35c-0.65-0.65-1.01-1.52-1.01-2.44z" fill="#EE8CFF"/><path d="m67.81 73.79c1.3 1.3 2.1 3.17 1.29 4.17s-2.53 1.29-4.57-0.79c-0.8-0.82-3.63-3.71-6.78-6.92l4.13-4.13 5.93 7.67z" fill="#40C4FF"/><path d="m46.2 57.07c0-0.88 0.34-1.76 1.01-2.43 1.34-1.34 3.52-1.34 4.87 0l5.73 6.23 4.06 5.25-4.13 4.13c-4.89-4.99-10.54-10.75-10.54-10.75-0.66-0.67-1-1.55-1-2.43z" fill="#F9A825"/><path d="m82.19 65.59c1.34 1.34 1.34 3.53 0 4.87s-3.53 1.34-4.87 0c0 0-4.54-5.25-9.15-10.63l4.13-4.13 9.89 9.89z" fill="#9ED839"/><path d="m58.3 44.05c1.13-0.81 2.7 0.36 3.35 1.01l10.65 10.65-4.13 4.13c-4.35-5.08-8.76-10.28-9.46-11.29-0.52-0.76-2.06-3.32-0.41-4.5z" fill="#40C4FF"/><path d="M98.76,63c1.3,1.3,1.3,3.57,0,4.87c-1.34,1.34-3.53,1.34-4.87,0L77.56,50.44l4.31-4.31L98.76,63z" fill="#40C4FF"/><path d="m59.72 28.84c1.08-1.56 2.47-2.03 4.87 0l17.28 17.28-4.31 4.31-16.77-17.9c-0.67-0.67-1.84-2.56-1.07-3.69z" fill="#9ED839"/><path d="m108.34 53.43c1.34 1.34 1.34 3.53 0 4.87s-3.53 1.34-4.87 0l-16.85-16.92 4.87-4.87 16.85 16.92z" fill="#EE8CFF"/><path d="m66.17 19.42c0-0.92 0.36-1.78 1.01-2.43 1.34-1.34 3.53-1.34 4.87 0l19.44 19.52-4.87 4.87-20.09-20.18c-0.65-0.65-0.36-0.86-0.36-1.78z" fill="#2E5FE6"/><path d="m111.55 37.25c2.49 2.4 3.82 4.14 3 5.48-0.94 1.54-2.35 1.89-5.6-0.75-1.3-1.06-6.42-5.7-12.07-10.87l4.22-4.22 10.45 10.36z" fill="#40C4FF"/><path d="m77.87 12.12c0-0.88 0.34-1.76 1.01-2.44 1.34-1.34 3.53-1.34 4.87 0l17.36 17.21-4.22 4.22c-8.41-7.69-18.01-16.56-18.01-16.56-0.67-0.67-1.01-1.55-1.01-2.43z" fill="#9ED839"/><path d="m66.31 100.24c5.44-2.69 8.52-7.13 10.21-12.06-0.05 8.41-2.43 16.55-9.54 23.66-14.53 14.53-33.39 9.34-50.02 4.75-4.81-1.33-9.1-2.43-12.96-3.18v-16.34c5.83 0.91 11.65 2.51 17.23 4.04 11.77 3.25 31.58 5.82 45.08-0.87z" fill="#EE8CFF"/><path d="m67.54 21.53c-8.14 1.07-14.25 6.73-14.25 6.73s0.84-2.64 2.66-5.71c1.36-2.28 3.22-4.64 5.07-6.5 14.53-14.53 33.39-9.33 50.02-4.75 4.81 1.33 9.1 2.43 12.96 3.18v16.34c-5.83-0.91-11.65-2.51-17.23-4.04-12.38-3.41-26.32-6.94-39.23-5.25z" fill="#EE8CFF"/><path d="m111.94 66.99c-14.53 14.53-33.39 9.34-50.02 4.75-6.26-1.72-40.08-16.4-55.02 6.22 0 0 2.96-20.8 20.69-27.19 14.31-5.16 35.8 4.72 38.6 5.5 17.25 4.75 33.4 6.63 47.56-6.48 3.24-3 6.69-7.78 7.45-12.13-0.35 1.94 4.09 15.98-9.26 29.33z" fill="#00BFA5"/></svg>

<?xml version="1.0" encoding="utf-8"?>
<!-- Generator: Adobe Illustrator 25.2.3, SVG Export Plug-In . SVG Version: 6.00 Build 0)  -->
<svg version="1.1" id="Layer_5" xmlns="http://www.w3.org/2000/svg" xmlns:xlink="http://www.w3.org/1999/xlink" x="0px" y="0px"
	 viewBox="0 0 128 128" style="enable-background:new 0 0 128 128;" xml:space="preserve">
<g>
	<path style="fill:#00897B;" d="M15.87,60.07c7.11-7.11,15.53-8.55,23.94-8.59c-4.93,1.69-8.59,5.23-12.06,10.21
		c-9.14,13.12-4.12,33.31-0.87,45.08c1.54,5.58,3.13,11.4,4.04,17.23H14.58c-0.74-3.87-1.85-8.15-3.18-12.96
		C6.82,94.4,1.34,74.6,15.87,60.07z"/>
	<g>
		<path style="fill:#00897B;" d="M116.69,16.96c4.58,16.64,9.78,35.49-4.75,50.02c-1.85,1.85-4.22,3.71-6.5,5.07
			c-3.06,1.82-5.71,2.66-5.71,2.66s5-9.77,5.72-15.06c1.77-12.89-0.84-26.04-4.25-38.43C99.68,15.65,98.08,9.83,97.17,4h16.34
			C114.26,7.86,115.37,12.15,116.69,16.96z"/>
	</g>
	<g>
		<path style="fill:#AB47BC;" d="M72.37,27.41c-7.39,7.39-5.17,17.93-0.63,34.41c3.69,13.4,10.69,32.75-4.73,40.95
			c-4.86,2.58-13.07,1.38-18.55,1.87c1.48-0.13,6.07-3.04,7.18-4.15c7.39-7.39,5.17-17.93,0.63-34.41
			c-4.58-16.64-9.78-35.49,4.75-50.02c14.53-14.53,33.39-9.33,50.02-4.75c4.81,1.33,9.1,2.43,12.96,3.18v16.34
			c-5.83-0.91-11.65-2.51-17.23-4.04C90.29,22.25,79.76,20.02,72.37,27.41z"/>
	</g>
	<g>
		<path style="fill:#F9A825;" d="M34.3,113.48c1.3,1.3,1.3,3.57,0,4.87v0c-0.65,0.65-1.52,1.01-2.43,1.01
			c-0.92,0-1.78-0.36-2.43-1.01l-8.6-11.18l4.28-4.28L34.3,113.48z"/>
		<path style="fill:#40C4FF;" d="M13.05,92.47c1.31-0.98,3.25,0.37,3.9,1.02l8.17,9.41l-4.28,4.28l-8.16-10.6
			C12.02,95.92,11.12,93.91,13.05,92.47z"/>
		<path style="fill:#40C4FF;" d="M50.87,110.89c1.34,1.34,1.34,3.53,0,4.87c-0.65,0.65-1.51,1.01-2.43,1.01
			c-0.92,0-1.78-0.36-2.43-1.01L29.2,98.8l4.19-4.19L50.87,110.89z"/>
		<path style="fill:#9ED839;" d="M12.25,77.96c1.43-1.25,3.58,0.19,4.92,1.53l16.22,15.12L29.2,98.8L13.09,82.55
			C11.86,81.27,10.59,79.4,12.25,77.96z"/>
		<path style="fill:#9ED839;" d="M60.45,101.31c1.3,1.3,1.3,3.57,0,4.87c-1.34,1.34-3.53,1.34-4.87,0L38.7,89.3l4.87-4.87
			L60.45,101.31z"/>
		<path style="fill:#40C4FF;" d="M14.82,64c0-0.92,0.36-1.78,1.01-2.44c1.34-1.34,3.53-1.34,4.87,0l22.87,22.87L38.7,89.3
			L15.83,66.43C15.18,65.78,14.82,64.92,14.82,64z"/>
		<path style="fill:#2E5FE6;" d="M67.71,88.18c1.3,1.3,1.99,3.44,0.69,4.74c0,0-1.98,1.47-3.32,0.13L49.21,78.79l4.28-4.28
			L67.71,88.18z"/>
		<path style="fill:#EE8CFF;" d="M29.98,60c0-0.92,0.36-1.78,1.01-2.43c0.65-0.65,1.52-1.01,2.43-1.01c0.92,0,1.79,0.36,2.43,1.01
			l17.63,16.94l-4.28,4.28L30.99,62.44C30.34,61.79,29.98,60.92,29.98,60z"/>
		<path style="fill:#40C4FF;" d="M67.81,73.79c1.3,1.3,2.1,3.17,1.29,4.17s-2.53,1.29-4.57-0.79c-0.8-0.82-3.63-3.71-6.78-6.92
			l4.13-4.13L67.81,73.79z"/>
		<path style="fill:#F9A825;" d="M46.2,57.07c0-0.88,0.34-1.76,1.01-2.43c1.34-1.34,3.52-1.34,4.87,0l5.73,6.23l4.06,5.25
			l-4.13,4.13c-4.89-4.99-10.54-10.75-10.54-10.75C46.54,58.83,46.2,57.95,46.2,57.07z"/>
		<path style="fill:#9ED839;" d="M82.19,65.59c1.34,1.34,1.34,3.53,0,4.87l0,0c-1.34,1.34-3.53,1.34-4.87,0
			c0,0-4.54-5.25-9.15-10.63l4.13-4.13L82.19,65.59z"/>
		<path style="fill:#40C4FF;" d="M58.3,44.05c1.13-0.81,2.7,0.36,3.35,1.01l9.81,9.81l0.84,0.84l-4.13,4.13
			c-4.35-5.08-8.76-10.28-9.46-11.29C58.19,47.79,56.65,45.23,58.3,44.05z"/>
		<path style="fill:#40C4FF;" d="M98.76,63c1.3,1.3,1.3,3.57,0,4.87c-1.34,1.34-3.53,1.34-4.87,0L77.56,50.44l4.31-4.31L98.76,63z"
			/>
		<path style="fill:#9ED839;" d="M59.72,28.84c1.08-1.56,2.47-2.03,4.87,0l17.28,17.28l-4.31,4.31L60.79,32.53
			C60.12,31.86,58.95,29.97,59.72,28.84z"/>
		<path style="fill:#EE8CFF;" d="M108.34,53.43c1.34,1.34,1.34,3.53,0,4.87c-1.34,1.34-3.53,1.34-4.87,0L86.62,41.38l4.87-4.87
			L108.34,53.43z"/>
		<path style="fill:#2E5FE6;" d="M66.17,19.42c0-0.92,0.36-1.78,1.01-2.43c1.34-1.34,3.53-1.34,4.87,0l19.44,19.52l-4.87,4.87
			L66.53,21.2C65.88,20.55,66.17,20.34,66.17,19.42z"/>
		<path style="fill:#40C4FF;" d="M111.55,37.25c2.49,2.4,3.82,4.14,3,5.48c-0.94,1.54-2.35,1.89-5.6-0.75
			c-1.3-1.06-6.42-5.7-12.07-10.87l4.22-4.22L111.55,37.25z"/>
		<path style="fill:#9ED839;" d="M77.87,12.12c0-0.88,0.34-1.76,1.01-2.44c1.34-1.34,3.53-1.34,4.87,0l17.36,17.21l-4.22,4.22
			c-8.41-7.69-18.01-16.56-18.01-16.56C78.21,13.88,77.87,13,77.87,12.12z"/>
	</g>
	<path style="fill:#EE8CFF;" d="M66.31,100.24c5.44-2.69,8.52-7.13,10.21-12.06c-0.05,8.41-2.43,16.55-9.54,23.66
		c-14.53,14.53-33.39,9.34-50.02,4.75c-4.81-1.33-9.1-2.43-12.96-3.18V97.07c5.83,0.91,11.65,2.51,17.23,4.04
		C33,104.36,52.81,106.93,66.31,100.24z"/>
	<g>
		<path style="fill:#EE8CFF;" d="M67.54,21.53c-8.14,1.07-14.25,6.73-14.25,6.73s0.84-2.64,2.66-5.71c1.36-2.28,3.22-4.64,5.07-6.5
			c14.53-14.53,33.39-9.33,50.02-4.75c4.81,1.33,9.1,2.43,12.96,3.18v16.34c-5.83-0.91-11.65-2.51-17.23-4.04
			C94.39,23.37,80.45,19.84,67.54,21.53z"/>
	</g>
	<g>
		<path style="fill:#00BFA5;" d="M111.94,66.99c-14.53,14.53-33.39,9.34-50.02,4.75c-6.26-1.72-40.08-16.4-55.02,6.22
			c0,0,2.96-20.8,20.69-27.19c14.31-5.16,35.8,4.72,38.6,5.5c17.25,4.75,33.4,6.63,47.56-6.48c3.24-3,6.69-7.78,7.45-12.13
			C120.85,39.6,125.29,53.64,111.94,66.99z"/>
	</g>
</g>
</svg>
